X:1
T:Plaintes de Marie Stuart
T:Plaintes de Marie Stuart
T:Romance
T:Jean Paul Egide Martini
T:Jean Pierre Claris de Florian
T:IMSLP177287 - Public Domain
T:IMSLP177287 - Public Domain
T:IMSLP177287 - Public Domain
T:IMSLP177287 - Public Domain
T:IMSLP177287 - Public Domain
C:Jean Paul Egide Martini
Z:IMSLP177287 - Public Domain
%%score 1 { ( 2 4 ) | ( 3 5 ) }
L:1/8
Q:1/4=50
M:4/4
K:Eb
V:1 treble nm="Voice"
V:2 treble nm="Piano"
V:4 treble 
V:3 bass 
V:5 bass 
V:1
"^Largo" z8 | z8 | z8 | z8 | z8 | z8 | z8 | z8 | z2 G2 c3 e | (e d2) c (c =B2) c | A>G G z z4 | %11
w: ||||||||En vain de|ma * dou\- leur * af\-|freu- * se|
w: |||||||||||
 z2 z =B d2 G F | E4{FEDE} F2 D2 | C4 z4 |"^espressivo." Ac ce{e} d2{c} B{A} G | FA Ac BA E z | %16
w: Ces murs sont les|tris\- tes é\-|chos!|En * son- * geant que je|fus * heu- * reu- * se.|
w: |||||
 z2 g f{f} e2 dc | BG F A{A} G2 z2 | z2 g3/2 f/{e} e2 dc | (BG) F D E2 z2 | z4 z2 B B | %21
w: Je ne fais qu' ac\-|croî- * tre mes maux,|Je ne fais qu' ac|croî- * tre mes maux.|A tra\-|
w: |||||
 _d3 G B2 _D3/2 E/ |{_D} C C z2 z2 G2 | A2 A F D2 C c |{c} =B4 z2 GF |{F} E2 D2 G A G F | %26
w: vers ces gril\- les ter\-|rib\- les Je|vois les oi\- seaux dans les|airs. Ils *|chan tent leurs a\- mours pai\-|
w: |||||
{E} E2 D2 z4 | z2 z d fd c=B | c2 E2 D2 =E2 | F4 z4 | z2 z d fd c=B | c4 E4 | D6 G2 | C4 z4 | z8 || %35
w: si\- bles.|Et moi * je *|pleu\- re dans les|fers,|Et moi * je *|pleu\- re|dans les|fers.||
w: |||||||||
S[Q:1/4=50]"^Largo" z8 | z8 | z8 | z8 | z8 | z8 | z8 | z8 | z4 c2 e2 | e d2 c c=B B c | %45
w: ||||||||Quel que|soit * le sort * qui m'ac\-|
w: ||||||||Voû- tes|som- * bres. sé * jour d'a-|
 A>G G z z4 | z2 z =B d3 F | E3 E F2 D2 | C4 z4 | Ac c e{e} d3 (B/G/) | FA Ac B>G E z | %51
w: ca- * ble,|Mon cœur sau\-|ra le sou\- te\-|nir,|In- * fortu- * née et *|non * cou- * pa- * ble,|
w: larm- * es,|Lie\- ux au si-|len- ce des- ti-|nés,|Ah! * qu' un jour pas *|sé * dans les lar- * mes,|
 z2 gf{f} e2 dc | B G F A{A} G2 z2 | z2 gf{f} e2 dc | B G F D E2 z2 | z4 z2 B2 | %56
w: Je * prends pour *|ju\- ge l'a\- ve- nir,|Je * prends pour *|ju\- ge l'a\- ve- nir,|Per-|
w: Est * long pour *|les in\- for\- tu\- nés,|Est * long pour *|les in\- for\- tu\- nés!|Les vents|
 _d2 G3/2 G/ B2 _D3/2 F/ |{D} C C z2 z2 G G | A3 F D2 C c |{c} =B4 z G G F |{F} E2 D2 GA GF | %61
w: fide et bar\- bare en\- ne\-|mie * L'on de\-|tes\- te\- ra tes fu\-|reurs, Et sur la|tom\- be de * Ma- *|
w: sif- flent, le hi- bou- *|cri- e, J' en|tends une clo- che gé-|mir. * Tout *|dit à la tris- * te Ma-|
{F} E2 D2 z4 | z4 fd c=B | c2 E E D2 =E2 | F4 z4 | z4 fd c=B | c4 D3 E | D6 G2 | C4 z2!D.S.! | z2 | %70
w: ri\- e.|La * pi- *|tié ver\- se\- ra des|pleurs.|La * pi- *|tié ver\- se\-|ra des|pleurs!||
w: ri- e.|Ton * heu- re|son- ne, il faut mou-|rir.|Ton * heu- re|son- ne, il|faut mou\-|rir!||
 !fermata!z8 |] %71
w: |
w: |
V:2
 z4!p! (G<E) (D<=B,) | C4!p! (c<A) (G<=E) | [A,F]4!p! (a<f) (d<c) | [DF=B]4!p! (d<B) (F<D) | %4
 E2!>(! (c>G)!>)! G2!>(! (G>E)!>)! | D2!>(! (F>A)!>)! G2 (=B,>D) | C(FE)(A G)!>(!(=Bc)E-!>)! | %7
 E(AG)(F E)(DG)(=B, | C2) z2 c2 e2- | e d2 c2 =B2 c | z3/2 G/!f!GA!p!{GAB} A>GGA | %11
!f!{GAB} AG!p!c=B dBGF | z [CE] z [CE] z [DF] z [=B,D] | C2 [G,E]2 C2 z2 | z4 z/ ^f/g/f/ g z | %15
 z4 z/ d/e/d/ e z | z2!f! [Bg][Af]{e} [Be]2!p! [Bd][Ac] | [GB][EG][DF][FA]{[FA]} [EG]2 z2 | %18
!f! z2 [Bg]>[Af]{f} [Be]2 [Bd][Ac] | [GB] z [A,D] z [G,E] z (e>B) | %20
!f! G2!>(! (B>G)!>)! E2!>(! (b>!>)!g) | (_d2 B>G) _D2 z2 | z2 (c'>g) =e2!p! (g>c) | %23
 (a<c) (f<A) (d<F) (c<E) | [Ec]2 [D=B]2 z!pp! G[eg][df] | %25
{[df]} [ce]2 [=Bd]2"_forzando" [eg][fa][eg][df] | %26
{[df]} [ce]2 [=Bd]2 z/"_cresc." G/^F/G/ A/A/c/=B/ |!f! [F=ABd]2 z!p! d fdc=B | %28
 z!pp! [Ec] z [CE] z"_cresc." [CD] z [C=E] |!f! [CF]4 z/"_cresc." f/=e/f/ a/f/_d/c/ | %30
!f! [FA=B]2 z!p! d fdc=B | z!pp! [Ec][Ec][Ec] z [CE][CE][CE] | z [CD][CD][CD] z [=B,D][B,D][B,D] | %33
 C2 (G>E) C2 z2 | z8 || z4!p! (G<E) (D<=B,) | C4!p! (c<A) (G<=E) | [A,F]4!p! (a<f) (d<c) | %38
 [DF=B]4!p! (d<B) (F<D) | E2!>(! (c>G)!>)! G2!>(! (G>E)!>)! | D2!>(! (F>A)!>)! G2 (=B,>D) | %41
 C(FE)(A G)!>(!(=Bc)E-!>)! | E(AG)(F E)(DG)(=B, | C2) z2 c2 e2- | e d2 c2 =B2 c | %45
 z3/2 G/!f!GA!p!{GAB} A>GGA |!f!{GAB} AG!p!c=B dBGF | z [CE] z [CE] z [DF] z [=B,D] | %48
 C2 [G,E]2 C2 z2 | z4 z/ ^f/g/f/ g z | z4 z/ d/e/d/ e z | z2!f! [Bg][Af]{e} [Be]2!p! [Bd][Ac] | %52
 [GB][EG][DF][FA]{[FA]} [EG]2 z2 |!f! z2 [Bg]>[Af]{f} [Be]2 [Bd][Ac] | %54
 [GB] z [A,D] z [G,E] z (e>B) |!f! G2!>(! (B>G)!>)! E2!>(! (b>!>)!g) | (_d2 B>G) _D2 z2 | %57
 z2 (c'>g) =e2!p! (g>c) | (a<c) (f<A) (d<F) (c<E) | [Ec]2 [D=B]2 z!pp! G[eg][df] | %60
{[df]} [ce]2 [=Bd]2"_forzando" [eg][fa][eg][df] | %61
{[df]} [ce]2 [=Bd]2 z/"_cresc." G/^F/G/ A/A/c/=B/ |!f! [F=ABd]2 z!p! d fdc=B | %63
 z!pp! [Ec] z [CE] z"_cresc." [CD] z [C=E] |!f! [CF]4 z/"_cresc." f/=e/f/ a/f/_d/c/ | %65
!f! [FA=B]2 z!p! d fdc=B | z!pp! [Ec][Ec][Ec] z [CE][CE][CE] | z [CD][CD][CD] z [=B,D][B,D][B,D] | %68
 C2 (G>E) C2 | z2 | !fermata!z8 |] %71
V:3
!f! [C,,C,]4 z4 |!f! [C,,C,]4 z4 |!f! [C,,C,]4 z4 |!f! [C,,C,]4 z4 |!p! [C,,C,]2 z2 [E,,E,]2 z2 | %5
 [F,,F,]2 z2 [G,,G,]2 z2 | [A,,A,]2 [A,,A,]2 [E,,E,]2 [E,,E,]2 | %7
 [F,,F,]2 [F,,F,]2 [G,,G,]2 [G,,G,]2 | [C,,C,]2 z2 z4 | z8 | [=B,D]3 [CE] [B,D]3 [CE] | %11
 [=B,D]2 z2 z2 [B,D]2 | C z A, z F, z G, z | C,2 z2 C,2 z2 | [CE]2 [CE]2 [_B,D]2 [B,D]2 | %15
 [A,C]2 [A,C]2 [G,B,]2 [G,B,][F,A,] | G,2 [E,,E,][F,,F,] [G,,G,]2 [A,,A,]2 | %17
 [B,,B,]2 B,,2 E,2 [G,B,]>[F,A,] | [E,G,]2 [E,,E,]>[F,,F,] [G,,G,]2 [A,,A,]2 | %19
 B,2 B,,2"^rinf." E,2 z2 | [E,G,B,]2 z2 [E,G,B,]2 z2 | [E,G,B,]2 z2 [E,G,B,]2 z2 | %22
 [=E,G,C]2 z2 [E,G,C]2 z2 | [F,A,C]2 z2 F,2 ^F,2 | G,G,G,G, G,2 z2 | G,,G,G,G, G,2 z2 | %26
 G,,G,G,G, G,2 z2 | [=B,D]2 z2 z4 | [E,,E,] z [E,,E,] z [F,,F,] z [G,,G,] z | [A,,A,]4 z4 | %30
 [F,A,=B,D]2 z2 z4 | [E,,E,]4 [^F,,^F,]4 | [G,,G,]4 [G,,,G,,]4 | C,,2 z2 z2 (G,>E,) | %34
 C,2 C,,2 z4 ||!f! [C,,C,]4 z4 |!f! [C,,C,]4 z4 |!f! [C,,C,]4 z4 |!f! [C,,C,]4 z4 | %39
!p! [C,,C,]2 z2 [E,,E,]2 z2 | [F,,F,]2 z2 [G,,G,]2 z2 | [A,,A,]2 [A,,A,]2 [E,,E,]2 [E,,E,]2 | %42
 [F,,F,]2 [F,,F,]2 [G,,G,]2 [G,,G,]2 | [C,,C,]2 z2 z4 | z8 | [=B,D]3 [CE] [B,D]3 [CE] | %46
 [=B,D]2 z2 z2 [B,D]2 | C z A, z F, z G, z | C,2 z2 C,2 z2 | [CE]2 [CE]2 [_B,D]2 [B,D]2 | %50
 [A,C]2 [A,C]2 [G,B,]2 [G,B,][F,A,] | G,2 [E,,E,][F,,F,] [G,,G,]2 [A,,A,]2 | %52
 [B,,B,]2 B,,2 E,2 [G,B,]>[F,A,] | [E,G,]2 [E,,E,]>[F,,F,] [G,,G,]2 [A,,A,]2 | %54
 B,2 B,,2"^rinf." E,2 z2 | [E,G,B,]2 z2 [E,G,B,]2 z2 | [E,G,B,]2 z2 [E,G,B,]2 z2 | %57
 [=E,G,C]2 z2 [E,G,C]2 z2 | [F,A,C]2 z2 F,2 ^F,2 | G,G,G,G, G,2 z2 | G,,G,G,G, G,2 z2 | %61
 G,,G,G,G, G,2 z2 | [=B,D]2 z2 z4 | [E,,E,] z [E,,E,] z [F,,F,] z [G,,G,] z | [A,,A,]4 z4 | %65
 [F,A,=B,D]2 z2 z4 | [E,,E,]4 [^F,,^F,]4 | [G,,G,]4 [G,,,G,,]4 | C,,2 z4 | (G,>E,) | %70
 C,2 C,,2 !fermata!z4 |] %71
V:4
 x8 | x8 | x8 | x8 | x8 | x8 | x8 | x8 | x6 [EG]2 | [FA]2 [EG]2 [DF]2 [CE]2 | x8 | x8 | x8 | x8 | %14
 x8 | x8 | x8 | x8 | x8 | x8 | x8 | x8 | x8 | x8 | x8 | x8 | x8 | x8 | x8 | x8 | x8 | x8 | x8 | %33
 x8 | x8 || x8 | x8 | x8 | x8 | x8 | x8 | x8 | x8 | x6 [EG]2 | [FA]2 [EG]2 [DF]2 [CE]2 | x8 | x8 | %47
 x8 | x8 | x8 | x8 | x8 | x8 | x8 | x8 | x8 | x8 | x8 | x8 | x8 | x8 | x8 | x8 | x8 | x8 | x8 | %66
 x8 | x8 | x6 | x2 | x8 |] %71
V:5
 x8 | x8 | x8 | x8 | x8 | x8 | x8 | x8 | x8 | x8 | x8 | x8 | x8 | x4 E,2 x2 | x8 | x8 | E,2 x6 | %17
 x8 | x8 | x8 | x8 | x6 C,>G,, | =E,,2 x6 | x8 | x8 | x8 | x8 | [F,A,]2 x6 | x8 | x8 | x8 | x8 | %32
 x8 | x8 | x8 || x8 | x8 | x8 | x8 | x8 | x8 | x8 | x8 | x8 | x8 | x8 | x8 | x8 | x4 E,2 x2 | x8 | %50
 x8 | E,2 x6 | x8 | x8 | x8 | x8 | x6 C,>G,, | =E,,2 x6 | x8 | x8 | x8 | x8 | [F,A,]2 x6 | x8 | %64
 x8 | x8 | x8 | x8 | x6 | x2 | x8 |] %71

